public/primaries/RotateClockwise.svg

<svg id="Layer_1" data-name="Layer 1" xmlns="http://www.w3.org/2000/svg" width="64" height="64" viewBox="0 0 64 64">
  <defs>
    <style>
      .cls-1 {
        fill-rule: evenodd;
      }
    </style>
  </defs>
  <title>Icons 200</title>
  <path class="cls-1" d="M32.011,54.0014v4.9937a1.0274,1.0274,0,0,1-1.6225.8191l-9.9742-6.9887a0.9956,0.9956,0,0,1,0-1.6382l9.9742-6.9887a1.0273,1.0273,0,0,1,1.6225.819v4.9835A18.002,18.002,0,0,0,45.96,20.6359a2,2,0,0,1,3.0506-2.5886A22.0024,22.0024,0,0,1,32.011,54.0014ZM28.75,23.0724L38.6,25.166a3.021,3.021,0,0,1,2.3268,3.5833L38.8332,38.6A3.021,3.021,0,0,1,35.25,40.927L25.4,38.8334A3.021,3.021,0,0,1,23.0735,35.25l2.0937-9.8507A3.021,3.021,0,0,1,28.75,23.0724Zm4.8616-3.2709a1.0274,1.0274,0,0,1-1.6225-.8191V13.9995A18.002,18.002,0,0,0,18.04,43.3646a2,2,0,0,1-3.0505,2.5887,22.0023,22.0023,0,0,1,17-35.954V5.0049a1.0273,1.0273,0,0,1,1.6225-.8191l9.9741,6.9888a0.9954,0.9954,0,0,1,0,1.6381Z"/>
</svg>

<svg id="Layer_1" data-name="Layer 1" xmlns="http://www.w3.org/2000/svg" width="64" height="64" viewBox="0 0 64 64"><defs><style>.cls-1{fill-rule:evenodd}</style></defs><title>Icons 200</title><path class="cls-1" d="M32.011 54.001v4.994a1.027 1.027 0 0 1-1.623.82l-9.974-6.99a.996.996 0 0 1 0-1.638L30.39 44.2a1.027 1.027 0 0 1 1.622.819V50A18.002 18.002 0 0 0 45.96 20.636a2 2 0 0 1 3.05-2.589 22.002 22.002 0 0 1-16.999 35.954zM28.75 23.072l9.85 2.094a3.021 3.021 0 0 1 2.327 3.583L38.833 38.6a3.021 3.021 0 0 1-3.583 2.327l-9.85-2.094a3.021 3.021 0 0 1-2.326-3.583l2.093-9.85a3.021 3.021 0 0 1 3.583-2.328zm4.862-3.27a1.027 1.027 0 0 1-1.623-.82V14A18.002 18.002 0 0 0 18.04 43.364a2 2 0 0 1-3.05 2.588A22.002 22.002 0 0 1 31.99 10V5.005a1.027 1.027 0 0 1 1.622-.82l9.974 6.99a.995.995 0 0 1 0 1.638z"/></svg>
